dist/img/water.svg

<svg width="91" height="158" viewBox="0 0 91 158" fill="none" xmlns="http://www.w3.org/2000/svg">
<path d="M78.8064 56.1969C70.6386 43.7826 62.3098 31.476 54.7592 18.6844L44.5249 1.34743L34.2905 18.6844C26.74 31.476 18.4111 43.7826 10.2433 56.1969C4.31203 65.2247 1.34192 75.6359 1.34192 86.0561C1.34192 110.004 20.6745 129.416 44.5249 129.416C68.3752 129.416 87.7078 110.004 87.7078 86.0561C87.7078 75.6359 84.7467 65.2247 78.8064 56.1969Z" fill="#EFEEEC"/>
<path d="M44.5249 130.764C19.9767 130.764 0 110.705 0 86.0561C0 75.1149 3.15798 64.5331 9.12505 55.4514C10.5833 53.2326 12.0504 51.0138 13.5087 48.804C20.1109 38.8061 26.9457 28.4758 33.1365 17.9927L43.3708 0.655751C43.6124 0.251521 44.0507 0 44.5249 0C44.999 0 45.4374 0.251521 45.6789 0.655751L55.9133 17.9927C62.104 28.4758 68.9388 38.8151 75.55 48.813C77.0083 51.0228 78.4754 53.2326 79.9336 55.4514C85.9007 64.5331 89.0587 75.1149 89.0587 86.0561C89.0497 110.705 69.082 130.764 44.5249 130.764ZM44.5249 3.9884L35.4446 19.3671C29.218 29.904 22.3743 40.2703 15.7452 50.2952C14.278 52.505 12.8198 54.7237 11.3616 56.9425C5.68974 65.5751 2.68384 75.6449 2.68384 86.0561C2.68384 109.223 21.4528 128.069 44.5249 128.069C67.5969 128.069 86.3659 109.223 86.3659 86.0561C86.3659 75.6449 83.36 65.5751 77.6792 56.9335C76.221 54.7237 74.7628 52.514 73.3046 50.3042C66.6755 40.2793 59.8227 29.913 53.5962 19.3671L44.5249 3.9884Z" fill="black"/>
<path d="M86.1333 117.954C81.6692 111.163 77.1156 104.435 72.9825 97.4374L67.3822 87.9604L61.7819 97.4374C57.6488 104.435 53.0953 111.163 48.6311 117.954C45.3837 122.895 43.7645 128.59 43.7645 134.285C43.7645 147.382 54.3388 158 67.3822 158C80.4257 158 91 147.382 91 134.285C91 128.59 89.3807 122.895 86.1333 117.954Z" fill="black"/>
</svg>

<svg width="91" height="158" fill="none" xmlns="http://www.w3.org/2000/svg"><path d="M78.806 56.197C70.64 43.783 62.31 31.476 54.76 18.684L44.525 1.347 34.29 18.684c-7.55 12.792-15.88 25.099-24.047 37.513-5.931 9.028-8.901 19.439-8.901 29.86 0 23.947 19.332 43.359 43.183 43.359 23.85 0 43.183-19.412 43.183-43.36 0-10.42-2.961-20.831-8.902-29.86z" fill="#EFEEEC"/><path d="M44.525 130.764C19.977 130.764 0 110.705 0 86.056c0-10.941 3.158-21.523 9.125-30.605 1.458-2.218 2.925-4.437 4.384-6.647 6.602-9.998 13.437-20.328 19.627-30.811L43.371.656A1.346 1.346 0 0144.525 0c.474 0 .912.252 1.154.656l10.234 17.337c6.191 10.483 13.026 20.822 19.637 30.82 1.458 2.21 2.925 4.42 4.384 6.638 5.967 9.082 9.125 19.664 9.125 30.605-.01 24.649-19.977 44.708-44.534 44.708zm0-126.776l-9.08 15.38c-6.227 10.536-13.07 20.902-19.7 30.927-1.467 2.21-2.925 4.429-4.383 6.648-5.672 8.632-8.678 18.702-8.678 29.113 0 23.167 18.769 42.013 41.84 42.013 23.073 0 41.842-18.846 41.842-42.013 0-10.411-3.006-20.48-8.687-29.122l-4.374-6.63c-6.63-10.025-13.482-20.391-19.709-30.937L44.525 3.988z" fill="#000"/><path d="M86.133 117.954c-4.464-6.791-9.017-13.519-13.15-20.517l-5.6-9.477-5.601 9.477c-4.133 6.998-8.687 13.726-13.15 20.517a29.711 29.711 0 00-4.867 16.331c0 13.097 10.574 23.715 23.617 23.715C80.426 158 91 147.382 91 134.285c0-5.695-1.62-11.39-4.867-16.331z" fill="#000"/></svg>
